beaker-plus.svg

<svg fill="currentColor" viewBox="0 0 24 24"><path d="M18 14h2v3h3v2h-3v3h-2v-3h-3v-2h3zM3 3h18v2c-1.1 0-2 .9-2 2v5a6.005 6.005 0 0 0-5.2 9H7c-1.1 0-2-.9-2-2V7c0-1.1-.9-2-2-2zm4 6v1h3V9zm0 2v1h3v-1zm3 5v-1H7v1zm2-2v-1H7v1zm0-6V7H7v1z"/></svg>

<svg  viewBox="0 0 24 24" fill="currentColor"><path  d="M18 14H20V17H23V19H20V22H18V19H15V17H18V14M3 3H21V5C19.9 5 19 5.9 19 7V12C15.69 12 13 14.69 13 18C13 19.09 13.29 20.12 13.8 21H7C5.9 21 5 20.1 5 19V7C5 5.9 4.1 5 3 5V3M7 9V10H10V9H7M7 11V12H10V11H7M10 16V15H7V16H10M12 14V13H7V14H12M12 8V7H7V8H12Z"/></svg>
